X:5300
T:Fishing Rod Reel
C:Ward Allen
R:reel
M:2/4
L:1/16
K:Gm
DF|G2DG BAGB|AFcF AcFA|G2DG BAGB|AdcA G2BA|
G2DG BAGB|AFcF AcFA|G2DG BAGB|AdcA G2:|
|:=ef|g2df bgd=e|ffcf afdf|g2dg bgd=e|^f=e^fa g2d=e|
g2ga bag2|f=efg afdf|g^fga g=edc|BGA^F G2:|
